static/colorizer.svg

<svg fill="none" height="90" viewBox="0 0 90 90" width="90" xmlns="http://www.w3.org/2000/svg"><path clip-rule="evenodd" d="m79.746 25.9816 6.8579-4.1192c-3.8064-6.3372-9.1291-11.6599-15.4663-15.46634l-4.1193 6.85794-4.1192 6.858c4.0903 2.4568 7.5321 5.8986 9.9889 9.9889zm-22.7462-16.88134 1.9382-7.76167c-3.5016-.874391-7.1656-1.33859-10.938-1.33859s-7.4364.4642-10.938 1.33859l1.9382 7.76167 1.9382 7.76164c2.2439-.5603 4.6063-.8619 7.0616-.8619s4.8177.3016 7.0616.8619zm-28.0182 4.15374-4.1192-6.85794c-6.3372 3.80644-11.6599 9.12914-15.46635 15.46634l6.85795 4.1193 6.858 4.1192c2.4568-4.0903 5.8986-7.5321 9.9889-9.9889zm-25.9816 31.746c0-3.7724.4642-7.4364 1.33859-10.938l7.76171 1.9382 7.7616 1.9382c-.5603 2.2439-.8619 4.6063-.8619 7.0616s.3016 4.8177.8619 7.0616l-7.7616 1.9382-7.76171 1.9382c-.87439-3.5016-1.33859-7.1656-1.33859-10.938zm13.254 19.0183-6.85794 4.1193c3.80644 6.3372 9.12914 11.6599 15.46634 15.4663l4.1193-6.8579 4.1192-6.858c-4.0903-2.4568-7.5321-5.8986-9.9889-9.9889zm22.7462 16.8814-1.9382 7.7617c3.5016.8744 7.1656 1.3386 10.938 1.3386s7.4364-.4642 10.938-1.3386l-1.9382-7.7617-1.9382-7.7616c-2.2439.5603-4.6063.8619-7.0616.8619s-4.8177-.3016-7.0616-.8619zm28.0181-4.1537 4.1193 6.8579c6.3372-3.8064 11.6599-9.1291 15.4663-15.4663l-6.8579-4.1193-6.858-4.1192c-2.4568 4.0903-5.8986 7.5321-9.9889 9.9889z" fill="#e04a89" fill-rule="evenodd"/></svg>

<svg width="90" height="90" viewBox="0 0 90 90" fill="none" xmlns="http://www.w3.org/2000/svg">
<path fill-rule="evenodd" clip-rule="evenodd" d="M79.746 25.9816L86.6039 21.8624C82.7975 15.5252 77.4748 10.2025 71.1376 6.39606L67.0183 13.254L62.8991 20.112C66.9894 22.5688 70.4312 26.0106 72.888 30.1009L79.746 25.9816ZM56.9998 9.10026L58.938 1.33859C55.4364 0.464199 51.7724 0 48 0C44.2276 0 40.5636 0.4642 37.062 1.33859L39.0002 9.10026L40.9384 16.8619C43.1823 16.3016 45.5447 16 48 16C50.4553 16 52.8177 16.3016 55.0616 16.8619L56.9998 9.10026ZM28.9816 13.254L24.8624 6.39606C18.5252 10.2025 13.2025 15.5252 9.39605 21.8624L16.254 25.9817L23.112 30.1009C25.5688 26.0106 29.0106 22.5688 33.1009 20.112L28.9816 13.254ZM3 45C3 41.2276 3.4642 37.5636 4.33859 34.062L12.1003 36.0002L19.8619 37.9384C19.3016 40.1823 19 42.5447 19 45C19 47.4553 19.3016 49.8177 19.8619 52.0616L12.1003 53.9998L4.33859 55.938C3.4642 52.4364 3 48.7724 3 45ZM16.254 64.0183L9.39606 68.1376C13.2025 74.4748 18.5252 79.7975 24.8624 83.6039L28.9817 76.746L33.1009 69.888C29.0106 67.4312 25.5688 63.9894 23.112 59.8991L16.254 64.0183ZM39.0002 80.8997L37.062 88.6614C40.5636 89.5358 44.2276 90 48 90C51.7724 90 55.4364 89.5358 58.938 88.6614L56.9998 80.8997L55.0616 73.1381C52.8177 73.6984 50.4553 74 48 74C45.5447 74 43.1823 73.6984 40.9384 73.1381L39.0002 80.8997ZM67.0183 76.746L71.1376 83.6039C77.4748 79.7975 82.7975 74.4748 86.6039 68.1376L79.746 64.0183L72.888 59.8991C70.4312 63.9894 66.9894 67.4312 62.8991 69.888L67.0183 76.746Z" fill="#E04A89"/>
</svg>
